packages/icons/svg/Universe_Electricity_48px.svg

<svg xmlns="http://www.w3.org/2000/svg" viewBox="0 0 48 48"><path d="M39 7H9a2 2 0 00-2 2v30a2 2 0 002 2h30a2 2 0 002-2V9a2 2 0 00-2-2zm-1 31H10V10h28z"/><path d="M24 34a10 10 0 10-10-10 10 10 0 0010 10zm0-18a8 8 0 11-8 8 8 8 0 018-8z"/><circle cx="20.5" cy="24" r="1.5"/><circle cx="27.5" cy="24" r="1.5"/></svg>

<svg xmlns="http://www.w3.org/2000/svg" viewBox="0 0 48 48"><defs></defs><g id="Icon"><path  d="M39,7H9A2,2,0,0,0,7,9V39a2,2,0,0,0,2,2H39a2,2,0,0,0,2-2V9A2,2,0,0,0,39,7ZM38,38H10V10H38Z"/><path  d="M24,34A10,10,0,1,0,14,24,10,10,0,0,0,24,34Zm0-18a8,8,0,1,1-8,8A8,8,0,0,1,24,16Z"/><circle  cx="20.5" cy="24" r="1.5"/><circle  cx="27.5" cy="24" r="1.5"/></g></svg>
